files/resources/svgs/general/m-clipboard.svg

<svg width="20" height="20" viewBox="0 0 20 20" fill="none" xmlns="http://www.w3.org/2000/svg">
<path fill-rule="evenodd" clip-rule="evenodd" d="M13.8871 3.18189C14.283 3.21913 14.6773 3.262 15.07 3.31043C16.1942 3.44911 17 4.41371 17 5.51659V16.75C17 17.9926 15.9926 19 14.75 19H5.25C4.00736 19 3 17.9926 3 16.75V5.51659C3 4.41371 3.80579 3.44911 4.93005 3.31043C5.32266 3.26201 5.71697 3.21913 6.11291 3.18189C6.46903 1.92267 7.62676 1 9 1H11C12.3732 1 13.531 1.92267 13.8871 3.18189ZM7.5 4C7.5 3.17157 8.17157 2.5 9 2.5H11C11.8284 2.5 12.5 3.17157 12.5 4V4.5H7.5V4Z" fill="#0F172A"/>
</svg>

<svg xmlns="http://www.w3.org/2000/svg" viewBox="0 0 20 20" fill="currentColor" aria-hidden="true">
  <path fill-rule="evenodd" d="M13.887 3.182c.396.037.79.08 1.183.128C16.194 3.45 17 4.414 17 5.517V16.75A2.25 2.25 0 0114.75 19h-9.5A2.25 2.25 0 013 16.75V5.517c0-1.103.806-2.068 1.93-2.207.393-.048.787-.09 1.183-.128A3.001 3.001 0 019 1h2c1.373 0 2.531.923 2.887 2.182zM7.5 4A1.5 1.5 0 019 2.5h2A1.5 1.5 0 0112.5 4v.5h-5V4z" clip-rule="evenodd"/>
</svg>
